assets/img/logo-footer.svg

<svg width="64" height="50" fill="none" xmlns="http://www.w3.org/2000/svg"><path d="M2.37575 41.6c-.32 0-.60533-.0693-.856-.208-.24533-.144-.43733-.3387-.576-.584-.138667-.2507-.208-.536-.208-.856 0-.3147.069333-.5973.208-.848.13867-.2507.33067-.4453.576-.584.25067-.144.536-.216.856-.216.31467 0 .59467.072.84.216.25067.1387.44533.3333.584.584.13867.2507.208.5333.208.848 0 .32-.06933.6053-.208.856-.13867.2453-.33333.44-.584.584-.24533.1387-.52533.208-.84.208Zm0-.328c.384 0 .69333-.1227.928-.368.23467-.2453.352-.5627.352-.952 0-.384-.11733-.6987-.352-.944-.23467-.2453-.544-.368-.928-.368-.38933 0-.70133.1227-.936.368-.23467.2453-.352.56-.352.944 0 .3893.11733.7067.352.952.23467.2453.54667.368.936.368Zm-.664-.48V39.08h.8c.176 0 .31733.048.424.144.10667.096.16.2267.16.392 0 .2613-.12533.4293-.376.504l.448.672h-.496l-.392-.648h-.144v.648h-.424Zm.424-.968h.32c.05867 0 .10933-.0133.152-.04.04267-.032.064-.0827.064-.152 0-.064-.02133-.1093-.064-.136-.04267-.0267-.09333-.04-.152-.04h-.32v.368ZM6.97425 44v-5.6h2.112c.58133 0 1.02135.136 1.31995.408.2987.272.4481.6133.4481 1.024 0 .3573-.096.6427-.288.856-.192.208-.424.3493-.69605.424.21335.0427.40265.128.56805.256.1706.128.304.288.4.48.096.192.144.4.144.624 0 .288-.072.5493-.216.784-.1387.2293-.344.4107-.616.544-.27205.1333-.60538.2-1.00005.2h-2.176Zm.848-3.2h1.16c.32533 0 .57333-.0747.744-.224.17067-.1547.256-.3653.256-.632 0-.2613-.08533-.4693-.256-.624-.16533-.1547-.41867-.232-.76-.232h-1.144V40.8Zm0 2.504h1.216c.34133 0 .60533-.08.792-.24.19205-.16.28805-.384.28805-.672 0-.288-.0987-.5147-.29605-.68-.19733-.1707-.464-.256-.8-.256h-1.2v1.848Zm5.40155.792c-.336 0-.6134-.056-.832-.168-.2187-.112-.3814-.2587-.488-.44-.1067-.1867-.16-.3893-.16-.608 0-.384.1493-.688.448-.912.2986-.224.7253-.336 1.28-.336h1.04v-.072c0-.3093-.0854-.5413-.256-.696-.1654-.1547-.3814-.232-.648-.232-.2347 0-.44.0587-.616.176-.1707.112-.2747.28-.312.504h-.848c.0266-.288.1226-.5333.288-.736.1706-.208.384-.3653.64-.472.2613-.112.5466-.168.856-.168.5546 0 .984.1467 1.288.44.304.288.456.6827.456 1.184V44h-.736l-.072-.68c-.112.2187-.2747.4027-.488.552-.2134.1493-.4934.224-.84.224Zm.168-.688c.2293 0 .4213-.0533.576-.16.16-.112.2826-.2587.368-.44.0906-.1813.1466-.3813.168-.6h-.944c-.336 0-.576.0587-.72.176-.1387.1173-.208.264-.208.44 0 .1813.0666.3253.2.432.1386.1013.3253.152.56.152Zm4.5426.592c-.3894 0-.6987-.0933-.928-.28-.2294-.192-.344-.5307-.344-1.016v-1.96h-.68v-.712h.68l.104-1.008h.744v1.008h1.12v.712h-1.12v1.96c0 .2187.0453.3707.136.456.096.08.2586.12.488.12h.456V44h-.656Zm2.9144.096c-.336 0-.6134-.056-.832-.168-.2187-.112-.3814-.2587-.488-.44-.1067-.1867-.16-.3893-.16-.608 0-.384.1493-.688.448-.912.2986-.224.7253-.336 1.28-.336h1.04v-.072c0-.3093-.0854-.5413-.256-.696-.1654-.1547-.3814-.232-.648-.232-.2347 0-.44.0587-.616.176-.1707.112-.2747.28-.312.504h-.848c.0266-.288.1226-.5333.288-.736.1706-.208.384-.3653.64-.472.2613-.112.5466-.168.856-.168.5546 0 .984.1467 1.288.44.304.288.456.6827.456 1.184V44h-.736l-.072-.68c-.112.2187-.2747.4027-.488.552-.2134.1493-.4934.224-.84.224Zm.168-.688c.2293 0 .4213-.0533.576-.16.16-.112.2826-.2587.368-.44.0906-.1813.1466-.3813.168-.6h-.944c-.336 0-.576.0587-.72.176-.1387.1173-.208.264-.208.44 0 .1813.0666.3253.2.432.1386.1013.3253.152.56.152Zm4.5426.592c-.3894 0-.6987-.0933-.928-.28-.2294-.192-.344-.5307-.344-1.016v-1.96h-.68v-.712h.68l.104-1.008h.744v1.008h1.12v.712h-1.12v1.96c0 .2187.0453.3707.136.456.096.08.2586.12.488.12h.456V44h-.656Zm2.9144.096c-.336 0-.6134-.056-.832-.168-.2187-.112-.3814-.2587-.488-.44-.1067-.1867-.16-.3893-.16-.608 0-.384.1493-.688.448-.912.2986-.224.7253-.336 1.28-.336h1.04v-.072c0-.3093-.0854-.5413-.256-.696-.1654-.1547-.3814-.232-.648-.232-.2347 0-.44.0587-.616.176-.1707.112-.2747.28-.312.504h-.848c.0266-.288.1226-.5333.288-.736.1706-.208.384-.3653.64-.472.2613-.112.5466-.168.856-.168.5546 0 .984.1467 1.288.44.304.288.456.6827.456 1.184V44h-.736l-.072-.68c-.112.2187-.2747.4027-.488.552-.2134.1493-.4934.224-.84.224Zm.168-.688c.2293 0 .4213-.0533.576-.16.16-.112.2826-.2587.368-.44.0906-.1813.1466-.3813.168-.6h-.944c-.336 0-.576.0587-.72.176-.1387.1173-.208.264-.208.44 0 .1813.0666.3253.2.432.1386.1013.3253.152.56.152Zm5.1887.688c-.3093 0-.584-.0613-.824-.184-.2347-.1227-.4213-.296-.56-.52l-.088.608h-.76v-5.76h.848v2.408c.128-.1867.304-.352.528-.496.224-.144.512-.216.864-.216.384 0 .7227.0907 1.016.272.2933.1813.5227.4293.688.744.1707.3147.256.672.256 1.072s-.0853.7573-.256 1.072c-.1653.3093-.3947.5547-.688.736-.2933.176-.6347.264-1.024.264Zm-.144-.736c.3627 0 .6613-.1227.896-.368.2347-.2507.352-.576.352-.976 0-.2613-.0533-.4933-.16-.696-.1067-.2027-.2533-.36-.44-.472-.1867-.1173-.4027-.176-.648-.176-.3627 0-.6613.1253-.896.376-.2293.2507-.344.5733-.344.968 0 .4.1147.7253.344.976.2347.2453.5333.368.896.368Zm3.5092-4.08c-.16 0-.2933-.048-.4-.144-.1013-.1013-.152-.2267-.152-.376s.0507-.272.152-.368c.1067-.1013.24-.152.4-.152.16 0 .2907.0507.392.152.1067.096.16.2187.16.368s-.0533.2747-.16.376c-.1013.096-.232.144-.392.144Zm-.424 4.72v-3.968h.848V44h-.848Zm3.6314 0c-.3893 0-.6986-.0933-.928-.28-.2293-.192-.344-.5307-.344-1.016v-1.96h-.68v-.712h.68l.104-1.008h.744v1.008h1.12v.712h-1.12v1.96c0 .2187.0454.3707.136.456.096.08.2587.12.488.12h.456V44h-.656Zm3.506 0v-.608c.3627-.288.7094-.5787 1.04-.872.3307-.2933.624-.5813.88-.864.2614-.288.4667-.568.616-.84.1494-.2773.224-.544.224-.8 0-.1707-.0293-.3307-.088-.48-.0586-.1547-.1546-.2773-.288-.368-.1333-.096-.312-.144-.536-.144-.336 0-.5893.1067-.76.32-.1653.2133-.2453.4693-.24.768h-.824c.0054-.3947.088-.7253.248-.992.1654-.2667.384-.4693.656-.608.2774-.1387.5894-.208.936-.208.528 0 .9494.1493 1.264.448.32.2933.48.704.48 1.232 0 .3147-.0773.6267-.232.936-.1493.3093-.3466.608-.592.896-.24.2827-.4986.5493-.776.8-.2773.2507-.5413.4773-.792.68h2.56V44h-3.776Zm6.8677.096c-.5067 0-.944-.12-1.312-.36-.3627-.2453-.6427-.584-.84-1.016-.192-.4373-.288-.944-.288-1.52 0-.576.096-1.08.288-1.512.1973-.4373.4773-.776.84-1.016.368-.2453.8053-.368 1.312-.368.5066 0 .9413.1227 1.3039.368.3627.24.6401.5787.8321 1.016.1973.432.296.936.296 1.512s-.0987 1.0827-.296 1.52c-.192.432-.4694.7707-.8321 1.016-.3626.24-.7973.36-1.3039.36Zm0-.76c.304 0 .5733-.0853.808-.256.24-.1707.4266-.416.56-.736.1333-.32.2-.7013.2-1.144 0-.4427-.0667-.824-.2-1.144-.1334-.32-.32-.5653-.56-.736-.2347-.1707-.504-.256-.808-.256-.3094 0-.5814.0853-.816.256-.2347.1707-.4187.416-.552.736-.1334.32-.2.7013-.2 1.144 0 .4427.0666.824.2 1.144.1333.32.3173.5653.552.736.2346.1707.5066.256.816.256Zm3.2026.664v-.608c.3627-.288.7094-.5787 1.04-.872.3307-.2933.624-.5813.88-.864.2614-.288.4667-.568.616-.84.1494-.2773.224-.544.224-.8 0-.1707-.0293-.3307-.088-.48-.0586-.1547-.1546-.2773-.288-.368-.1333-.096-.312-.144-.536-.144-.336 0-.5893.1067-.76.32-.1653.2133-.2453.4693-.24.768h-.824c.0054-.3947.088-.7253.248-.992.1654-.2667.384-.4693.656-.608.2774-.1387.5894-.208.936-.208.528 0 .9494.1493 1.264.448.32.2933.48.704.48 1.232 0 .3147-.0773.6267-.232.936-.1493.3093-.3466.608-.592.896-.24.2827-.4986.5493-.776.8-.2773.2507-.5413.4773-.792.68h2.56V44h-3.776Zm6.8677.096c-.5067 0-.944-.12-1.312-.36-.3627-.2453-.6427-.584-.84-1.016-.192-.4373-.288-.944-.288-1.52 0-.576.096-1.08.288-1.512.1973-.4373.4773-.776.84-1.016.368-.2453.8053-.368 1.312-.368.5066 0 .9413.1227 1.304.368.3626.24.64.5787.832 1.016.1973.432.296.936.296 1.512s-.0987 1.0827-.296 1.52c-.192.432-.4694.7707-.832 1.016-.3627.24-.7974.36-1.304.36Zm0-.76c.304 0 .5733-.0853.808-.256.24-.1707.4266-.416.56-.736.1333-.32.2-.7013.2-1.144 0-.4427-.0667-.824-.2-1.144-.1334-.32-.32-.5653-.56-.736-.2347-.1707-.504-.256-.808-.256-.3094 0-.5814.0853-.816.256-.2347.1707-.4187.416-.552.736-.1334.32-.2.7013-.2 1.144 0 .4427.0666.824.2 1.144.1333.32.3173.5653.552.736.2346.1707.5066.256.816.256Z" fill="#FFE9D5"/><path d="M28.8906 20.2838c-6.4233 1.9972-16.7979-.0439-16.89-8.9389-.0922-8.89507 10.98-3.59638 10.98-3.59638l5.91 12.53528Z" fill="#FFC250"/><path d="M15.1236 6.35426c4.483-.76818 7.8877 5.17224 11.6547 11.36894 3.7669 6.1968 13.5759 8.653 19.8435 3.4418 6.2675-5.2111 8.9202-14.33787 1.2246-19.78183-7.6955-5.44396-12.4993 6.91555-19.1243 7.25528-6.6249.33974-6.6732-4.58478-13.5985-2.28419Z" fill="#FFD064"/><circle cx="47.1972" cy="11.6219" r="1.96745" fill="#FFE19D"/><circle cx="43.4262" cy="13.0974" r="1.47559" fill="#FFE19D"/><circle cx="46.0495" cy="15.0648" r="1.14768" fill="#FFE19D"/></svg>

<svg width="64" height="50" viewBox="0 0 64 50" fill="none" xmlns="http://www.w3.org/2000/svg">
<path d="M2.37575 41.6C2.05575 41.6 1.77042 41.5307 1.51975 41.392C1.27442 41.248 1.08242 41.0533 0.94375 40.808C0.805083 40.5573 0.73575 40.272 0.73575 39.952C0.73575 39.6373 0.805083 39.3547 0.94375 39.104C1.08242 38.8533 1.27442 38.6587 1.51975 38.52C1.77042 38.376 2.05575 38.304 2.37575 38.304C2.69042 38.304 2.97042 38.376 3.21575 38.52C3.46642 38.6587 3.66108 38.8533 3.79975 39.104C3.93842 39.3547 4.00775 39.6373 4.00775 39.952C4.00775 40.272 3.93842 40.5573 3.79975 40.808C3.66108 41.0533 3.46642 41.248 3.21575 41.392C2.97042 41.5307 2.69042 41.6 2.37575 41.6ZM2.37575 41.272C2.75975 41.272 3.06908 41.1493 3.30375 40.904C3.53842 40.6587 3.65575 40.3413 3.65575 39.952C3.65575 39.568 3.53842 39.2533 3.30375 39.008C3.06908 38.7627 2.75975 38.64 2.37575 38.64C1.98642 38.64 1.67442 38.7627 1.43975 39.008C1.20508 39.2533 1.08775 39.568 1.08775 39.952C1.08775 40.3413 1.20508 40.6587 1.43975 40.904C1.67442 41.1493 1.98642 41.272 2.37575 41.272ZM1.71175 40.792V39.08H2.51175C2.68775 39.08 2.82908 39.128 2.93575 39.224C3.04242 39.32 3.09575 39.4507 3.09575 39.616C3.09575 39.8773 2.97042 40.0453 2.71975 40.12L3.16775 40.792H2.67175L2.27975 40.144H2.13575V40.792H1.71175ZM2.13575 39.824H2.45575C2.51442 39.824 2.56508 39.8107 2.60775 39.784C2.65042 39.752 2.67175 39.7013 2.67175 39.632C2.67175 39.568 2.65042 39.5227 2.60775 39.496C2.56508 39.4693 2.51442 39.456 2.45575 39.456H2.13575V39.824ZM6.97425 44V38.4H9.08625C9.66758 38.4 10.1076 38.536 10.4062 38.808C10.7049 39.08 10.8543 39.4213 10.8543 39.832C10.8543 40.1893 10.7583 40.4747 10.5663 40.688C10.3743 40.896 10.1423 41.0373 9.87025 41.112C10.0836 41.1547 10.2729 41.24 10.4383 41.368C10.6089 41.496 10.7423 41.656 10.8383 41.848C10.9343 42.04 10.9823 42.248 10.9823 42.472C10.9823 42.76 10.9103 43.0213 10.7663 43.256C10.6276 43.4853 10.4223 43.6667 10.1503 43.8C9.87825 43.9333 9.54492 44 9.15025 44H6.97425ZM7.82225 40.8H8.98225C9.30758 40.8 9.55558 40.7253 9.72625 40.576C9.89692 40.4213 9.98225 40.2107 9.98225 39.944C9.98225 39.6827 9.89692 39.4747 9.72625 39.32C9.56092 39.1653 9.30758 39.088 8.96625 39.088H7.82225V40.8ZM7.82225 43.304H9.03825C9.37958 43.304 9.64358 43.224 9.83025 43.064C10.0223 42.904 10.1183 42.68 10.1183 42.392C10.1183 42.104 10.0196 41.8773 9.82225 41.712C9.62492 41.5413 9.35825 41.456 9.02225 41.456H7.82225V43.304ZM13.2238 44.096C12.8878 44.096 12.6104 44.04 12.3918 43.928C12.1731 43.816 12.0104 43.6693 11.9038 43.488C11.7971 43.3013 11.7438 43.0987 11.7438 42.88C11.7438 42.496 11.8931 42.192 12.1918 41.968C12.4904 41.744 12.9171 41.632 13.4718 41.632H14.5118V41.56C14.5118 41.2507 14.4264 41.0187 14.2558 40.864C14.0904 40.7093 13.8744 40.632 13.6078 40.632C13.3731 40.632 13.1678 40.6907 12.9918 40.808C12.8211 40.92 12.7171 41.088 12.6798 41.312H11.8318C11.8584 41.024 11.9544 40.7787 12.1198 40.576C12.2904 40.368 12.5038 40.2107 12.7598 40.104C13.0211 39.992 13.3064 39.936 13.6158 39.936C14.1704 39.936 14.5998 40.0827 14.9038 40.376C15.2078 40.664 15.3598 41.0587 15.3598 41.56V44H14.6238L14.5518 43.32C14.4398 43.5387 14.2771 43.7227 14.0638 43.872C13.8504 44.0213 13.5704 44.096 13.2238 44.096ZM13.3918 43.408C13.6211 43.408 13.8131 43.3547 13.9678 43.248C14.1278 43.136 14.2504 42.9893 14.3358 42.808C14.4264 42.6267 14.4824 42.4267 14.5038 42.208H13.5598C13.2238 42.208 12.9838 42.2667 12.8398 42.384C12.7011 42.5013 12.6318 42.648 12.6318 42.824C12.6318 43.0053 12.6984 43.1493 12.8318 43.256C12.9704 43.3573 13.1571 43.408 13.3918 43.408ZM17.9344 44C17.545 44 17.2357 43.9067 17.0064 43.72C16.777 43.528 16.6624 43.1893 16.6624 42.704V40.744H15.9824V40.032H16.6624L16.7664 39.024H17.5104V40.032H18.6304V40.744H17.5104V42.704C17.5104 42.9227 17.5557 43.0747 17.6464 43.16C17.7424 43.24 17.905 43.28 18.1344 43.28H18.5904V44H17.9344ZM20.8488 44.096C20.5128 44.096 20.2354 44.04 20.0168 43.928C19.7981 43.816 19.6354 43.6693 19.5288 43.488C19.4221 43.3013 19.3688 43.0987 19.3688 42.88C19.3688 42.496 19.5181 42.192 19.8168 41.968C20.1154 41.744 20.5421 41.632 21.0968 41.632H22.1368V41.56C22.1368 41.2507 22.0514 41.0187 21.8808 40.864C21.7154 40.7093 21.4994 40.632 21.2328 40.632C20.9981 40.632 20.7928 40.6907 20.6168 40.808C20.4461 40.92 20.3421 41.088 20.3048 41.312H19.4568C19.4834 41.024 19.5794 40.7787 19.7448 40.576C19.9154 40.368 20.1288 40.2107 20.3848 40.104C20.6461 39.992 20.9314 39.936 21.2408 39.936C21.7954 39.936 22.2248 40.0827 22.5288 40.376C22.8328 40.664 22.9848 41.0587 22.9848 41.56V44H22.2488L22.1768 43.32C22.0648 43.5387 21.9021 43.7227 21.6888 43.872C21.4754 44.0213 21.1954 44.096 20.8488 44.096ZM21.0168 43.408C21.2461 43.408 21.4381 43.3547 21.5928 43.248C21.7528 43.136 21.8754 42.9893 21.9608 42.808C22.0514 42.6267 22.1074 42.4267 22.1288 42.208H21.1848C20.8488 42.208 20.6088 42.2667 20.4648 42.384C20.3261 42.5013 20.2568 42.648 20.2568 42.824C20.2568 43.0053 20.3234 43.1493 20.4568 43.256C20.5954 43.3573 20.7821 43.408 21.0168 43.408ZM25.5594 44C25.17 44 24.8607 43.9067 24.6314 43.72C24.402 43.528 24.2874 43.1893 24.2874 42.704V40.744H23.6074V40.032H24.2874L24.3914 39.024H25.1354V40.032H26.2554V40.744H25.1354V42.704C25.1354 42.9227 25.1807 43.0747 25.2714 43.16C25.3674 43.24 25.53 43.28 25.7594 43.28H26.2154V44H25.5594ZM28.4738 44.096C28.1378 44.096 27.8604 44.04 27.6418 43.928C27.4231 43.816 27.2604 43.6693 27.1538 43.488C27.0471 43.3013 26.9938 43.0987 26.9938 42.88C26.9938 42.496 27.1431 42.192 27.4418 41.968C27.7404 41.744 28.1671 41.632 28.7218 41.632H29.7618V41.56C29.7618 41.2507 29.6764 41.0187 29.5058 40.864C29.3404 40.7093 29.1244 40.632 28.8578 40.632C28.6231 40.632 28.4178 40.6907 28.2418 40.808C28.0711 40.92 27.9671 41.088 27.9298 41.312H27.0818C27.1084 41.024 27.2044 40.7787 27.3698 40.576C27.5404 40.368 27.7538 40.2107 28.0098 40.104C28.2711 39.992 28.5564 39.936 28.8658 39.936C29.4204 39.936 29.8498 40.0827 30.1538 40.376C30.4578 40.664 30.6098 41.0587 30.6098 41.56V44H29.8738L29.8018 43.32C29.6898 43.5387 29.5271 43.7227 29.3138 43.872C29.1004 44.0213 28.8204 44.096 28.4738 44.096ZM28.6418 43.408C28.8711 43.408 29.0631 43.3547 29.2178 43.248C29.3778 43.136 29.5004 42.9893 29.5858 42.808C29.6764 42.6267 29.7324 42.4267 29.7538 42.208H28.8098C28.4738 42.208 28.2338 42.2667 28.0898 42.384C27.9511 42.5013 27.8818 42.648 27.8818 42.824C27.8818 43.0053 27.9484 43.1493 28.0818 43.256C28.2204 43.3573 28.4071 43.408 28.6418 43.408ZM33.8305 44.096C33.5212 44.096 33.2465 44.0347 33.0065 43.912C32.7718 43.7893 32.5852 43.616 32.4465 43.392L32.3585 44H31.5985V38.24H32.4465V40.648C32.5745 40.4613 32.7505 40.296 32.9745 40.152C33.1985 40.008 33.4865 39.936 33.8385 39.936C34.2225 39.936 34.5612 40.0267 34.8545 40.208C35.1478 40.3893 35.3772 40.6373 35.5425 40.952C35.7132 41.2667 35.7985 41.624 35.7985 42.024C35.7985 42.424 35.7132 42.7813 35.5425 43.096C35.3772 43.4053 35.1478 43.6507 34.8545 43.832C34.5612 44.008 34.2198 44.096 33.8305 44.096ZM33.6865 43.36C34.0492 43.36 34.3478 43.2373 34.5825 42.992C34.8172 42.7413 34.9345 42.416 34.9345 42.016C34.9345 41.7547 34.8812 41.5227 34.7745 41.32C34.6678 41.1173 34.5212 40.96 34.3345 40.848C34.1478 40.7307 33.9318 40.672 33.6865 40.672C33.3238 40.672 33.0252 40.7973 32.7905 41.048C32.5612 41.2987 32.4465 41.6213 32.4465 42.016C32.4465 42.416 32.5612 42.7413 32.7905 42.992C33.0252 43.2373 33.3238 43.36 33.6865 43.36ZM37.1957 39.28C37.0357 39.28 36.9024 39.232 36.7957 39.136C36.6944 39.0347 36.6437 38.9093 36.6437 38.76C36.6437 38.6107 36.6944 38.488 36.7957 38.392C36.9024 38.2907 37.0357 38.24 37.1957 38.24C37.3557 38.24 37.4864 38.2907 37.5877 38.392C37.6944 38.488 37.7477 38.6107 37.7477 38.76C37.7477 38.9093 37.6944 39.0347 37.5877 39.136C37.4864 39.232 37.3557 39.28 37.1957 39.28ZM36.7717 44V40.032H37.6197V44H36.7717ZM40.4031 44C40.0138 44 39.7045 43.9067 39.4751 43.72C39.2458 43.528 39.1311 43.1893 39.1311 42.704V40.744H38.4511V40.032H39.1311L39.2351 39.024H39.9791V40.032H41.0991V40.744H39.9791V42.704C39.9791 42.9227 40.0245 43.0747 40.1151 43.16C40.2111 43.24 40.3738 43.28 40.6031 43.28H41.0591V44H40.4031ZM43.9091 44V43.392C44.2718 43.104 44.6185 42.8133 44.9491 42.52C45.2798 42.2267 45.5731 41.9387 45.8291 41.656C46.0905 41.368 46.2958 41.088 46.4451 40.816C46.5945 40.5387 46.6691 40.272 46.6691 40.016C46.6691 39.8453 46.6398 39.6853 46.5811 39.536C46.5225 39.3813 46.4265 39.2587 46.2931 39.168C46.1598 39.072 45.9811 39.024 45.7571 39.024C45.4211 39.024 45.1678 39.1307 44.9971 39.344C44.8318 39.5573 44.7518 39.8133 44.7571 40.112H43.9331C43.9385 39.7173 44.0211 39.3867 44.1811 39.12C44.3465 38.8533 44.5651 38.6507 44.8371 38.512C45.1145 38.3733 45.4265 38.304 45.7731 38.304C46.3011 38.304 46.7225 38.4533 47.0371 38.752C47.3571 39.0453 47.5171 39.456 47.5171 39.984C47.5171 40.2987 47.4398 40.6107 47.2851 40.92C47.1358 41.2293 46.9385 41.528 46.6931 41.816C46.4531 42.0987 46.1945 42.3653 45.9171 42.616C45.6398 42.8667 45.3758 43.0933 45.1251 43.296H47.6851V44H43.9091ZM50.7768 44.096C50.2701 44.096 49.8328 43.976 49.4648 43.736C49.1021 43.4907 48.8221 43.152 48.6248 42.72C48.4328 42.2827 48.3368 41.776 48.3368 41.2C48.3368 40.624 48.4328 40.12 48.6248 39.688C48.8221 39.2507 49.1021 38.912 49.4648 38.672C49.8328 38.4267 50.2701 38.304 50.7768 38.304C51.2834 38.304 51.7181 38.4267 52.0807 38.672C52.4434 38.912 52.7208 39.2507 52.9128 39.688C53.1101 40.12 53.2088 40.624 53.2088 41.2C53.2088 41.776 53.1101 42.2827 52.9128 42.72C52.7208 43.152 52.4434 43.4907 52.0807 43.736C51.7181 43.976 51.2834 44.096 50.7768 44.096ZM50.7768 43.336C51.0808 43.336 51.3501 43.2507 51.5848 43.08C51.8248 42.9093 52.0114 42.664 52.1448 42.344C52.2781 42.024 52.3448 41.6427 52.3448 41.2C52.3448 40.7573 52.2781 40.376 52.1448 40.056C52.0114 39.736 51.8248 39.4907 51.5848 39.32C51.3501 39.1493 51.0808 39.064 50.7768 39.064C50.4674 39.064 50.1954 39.1493 49.9608 39.32C49.7261 39.4907 49.5421 39.736 49.4088 40.056C49.2754 40.376 49.2088 40.7573 49.2088 41.2C49.2088 41.6427 49.2754 42.024 49.4088 42.344C49.5421 42.664 49.7261 42.9093 49.9608 43.08C50.1954 43.2507 50.4674 43.336 50.7768 43.336ZM53.9794 44V43.392C54.3421 43.104 54.6888 42.8133 55.0194 42.52C55.3501 42.2267 55.6434 41.9387 55.8994 41.656C56.1608 41.368 56.3661 41.088 56.5154 40.816C56.6648 40.5387 56.7394 40.272 56.7394 40.016C56.7394 39.8453 56.7101 39.6853 56.6514 39.536C56.5928 39.3813 56.4968 39.2587 56.3634 39.168C56.2301 39.072 56.0514 39.024 55.8274 39.024C55.4914 39.024 55.2381 39.1307 55.0674 39.344C54.9021 39.5573 54.8221 39.8133 54.8274 40.112H54.0034C54.0088 39.7173 54.0914 39.3867 54.2514 39.12C54.4168 38.8533 54.6354 38.6507 54.9074 38.512C55.1848 38.3733 55.4968 38.304 55.8434 38.304C56.3714 38.304 56.7928 38.4533 57.1074 38.752C57.4274 39.0453 57.5874 39.456 57.5874 39.984C57.5874 40.2987 57.5101 40.6107 57.3554 40.92C57.2061 41.2293 57.0088 41.528 56.7634 41.816C56.5234 42.0987 56.2648 42.3653 55.9874 42.616C55.7101 42.8667 55.4461 43.0933 55.1954 43.296H57.7554V44H53.9794ZM60.8471 44.096C60.3404 44.096 59.9031 43.976 59.5351 43.736C59.1724 43.4907 58.8924 43.152 58.6951 42.72C58.5031 42.2827 58.4071 41.776 58.4071 41.2C58.4071 40.624 58.5031 40.12 58.6951 39.688C58.8924 39.2507 59.1724 38.912 59.5351 38.672C59.9031 38.4267 60.3404 38.304 60.8471 38.304C61.3537 38.304 61.7884 38.4267 62.1511 38.672C62.5137 38.912 62.7911 39.2507 62.9831 39.688C63.1804 40.12 63.2791 40.624 63.2791 41.2C63.2791 41.776 63.1804 42.2827 62.9831 42.72C62.7911 43.152 62.5137 43.4907 62.1511 43.736C61.7884 43.976 61.3537 44.096 60.8471 44.096ZM60.8471 43.336C61.1511 43.336 61.4204 43.2507 61.6551 43.08C61.8951 42.9093 62.0817 42.664 62.2151 42.344C62.3484 42.024 62.4151 41.6427 62.4151 41.2C62.4151 40.7573 62.3484 40.376 62.2151 40.056C62.0817 39.736 61.8951 39.4907 61.6551 39.32C61.4204 39.1493 61.1511 39.064 60.8471 39.064C60.5377 39.064 60.2657 39.1493 60.0311 39.32C59.7964 39.4907 59.6124 39.736 59.4791 40.056C59.3457 40.376 59.2791 40.7573 59.2791 41.2C59.2791 41.6427 59.3457 42.024 59.4791 42.344C59.6124 42.664 59.7964 42.9093 60.0311 43.08C60.2657 43.2507 60.5377 43.336 60.8471 43.336Z" fill="#FFE9D5"/>
<path d="M28.8906 20.2838C22.4673 22.281 12.0927 20.2399 12.0006 11.3449C11.9084 2.44983 22.9806 7.74852 22.9806 7.74852L28.8906 20.2838Z" fill="#FFC250"/>
<path d="M15.1236 6.35426C19.6066 5.58608 23.0113 11.5265 26.7783 17.7232C30.5452 23.92 40.3542 26.3762 46.6218 21.165C52.8893 15.9539 55.542 6.82713 47.8464 1.38317C40.1509 -4.06079 35.3471 8.29872 28.7221 8.63845C22.0972 8.97819 22.0489 4.05367 15.1236 6.35426Z" fill="#FFD064"/>
<circle cx="47.1972" cy="11.6219" r="1.96745" fill="#FFE19D"/>
<circle cx="43.4262" cy="13.0974" r="1.47559" fill="#FFE19D"/>
<circle cx="46.0495" cy="15.0648" r="1.14768" fill="#FFE19D"/>
</svg>
